X: 39
T: Missa Fors seulement / Gloria
N: Derived from Ock1007b-Missa_Fors_seulement-Gloria.krn
C: Johannes Ockeghem
%%abc-version 2.0
%%abcx-abcm2ps-target-version 5.9.1 (29 Sep 2008)
%%abc-creator hum2abc beta
%%abcx-conversion-date 2019/02/17 07:26:14
%%abc-edited-by Jesse Rodin
%%abc-edited-by Chris Gage 06-29-2012
%%abcx-initial-encoding-date 2012/08/16/
%%humdrum-veritas 2534312730
%%humdrum-veritas-data 2855141029
%%linebreak <none>
%%barnumbers 0
L: 1/4
M: 3/1
Q: 1/2=120
V: 1 clef=treble
V: 2 clef=treble-8
V: 3 clef=treble-8
V: 4 clef=bass
V: 5 clef=bass
K: C
[V:1] z12 | 
[V:2] d8d4 | 
[V:3] z12 | 
[V:4] z4z4D,4- | 
[V:5] D,8_B,,3G,, | 
[V:1] z12 | 
[V:2] d4d6cB | 
[V:3] z12 | 
[V:4] D,4D,4D,4 | 
[V:5] G,,4F,,2G,,3F,,D,,2- | 
[V:1] z12 | 
[V:2] A8A4 | 
[V:3] z12 | 
[V:4] D,6C,B,,A,,4 | 
[V:5] D,,2F,,4D,,2F,,3G,, | 
[V:1] z12 | 
[V:2] c4c4_B4- | 
[V:3] z12 | 
[V:4] A,,4C,4D,4 | 
[V:5] A,,8G,,4- | 
[V:1] z12 | 
[V:2] B2AG_B2A2G2d2- | 
[V:3] z12 | 
[V:4] E,4F,4G,4- | 
[V:5] G,,2F,,E,,D,,4z2G,,2- | 
[V:1] z12 | 
[V:2] d_Bc_BAGG4^F2 | 
[V:3] z12 | 
[V:4] G,2F,2E,2D,2C,4 | 
[V:5] G,,2D,,2G,,2_B,,2A,,4 | 
[V:1] D8D4 | 
[V:2] G3FD4z4 | 
[V:3] z4z4A4- | 
[V:4] D,4G,4F,4 | 
[V:5] G,,6F,,E,,D,,4 | 
[V:1] D4D6CB, | 
[V:2] F4A3Bc4 | 
[V:3] A4A4A4 | 
[V:4] D,3B,,A,,4F,4 | 
[V:5] D,,4F,,6G,,2 | 
[V:1] A,4z4E4- | 
[V:2] c4c4c4 | 
[V:3] A4A4A4 | 
[V:4] E,2F,2E,D,C,2E,2E,2- | 
[V:5] A,,4A,,4A,,4 | 
[V:1] E4E4E4 | 
[V:2] c4c4c2c2- | 
[V:3] A4A2A4GF | 
[V:4] E,A,,A,4G,F,E,2C,2 | 
[V:5] A,,4A,,4A,,2A,,2- | 
[V:1] E2E4DCB,4 | 
[V:2] c2BAG4z4 | 
[V:3] E4E4G4- | 
[V:4] C,6B,,4E,2- | 
[V:5] A,,2G,,F,,E,,4E,,4 | 
[V:1] B,4D4D4 | 
[V:2] G4G4A4 | 
[V:3] G2FED4F4 | 
[V:4] E,2D,C,B,,2A,,2A,,4 | 
[V:5] G,,6F,,E,,D,,4 | 
[V:1] C6A,2C4 | 
[V:2] A3GE4z4 | 
[V:3] F3GA4G4- | 
[V:4] z2C,4D,2E,4 | 
[V:5] A,,6G,,F,,E,,4 | 
[V:1] B,6A,2A,4- | 
[V:2] z12 | 
[V:3] G4G4F4 | 
[V:4] D,8C,4 | 
[V:5] G,,8A,,4 | 
[V:1] A,4^G,4A,4 | 
[V:2] z4z4E4 | 
[V:3] E4D4C4 | 
[V:4] B,,8A,,4 | 
[V:5] E,,4z4A,,4- | 
[V:1] E4F6D2 | 
[V:2] E2E2D4D4 | 
[V:3] C4D4F4 | 
[V:4] z4A,,4B,,4 | 
[V:5] A,,4F,,4D,,4 | 
[V:1] C3DE4F4 | 
[V:2] G4z4A4- | 
[V:3] E3FG4F3D | 
[V:4] C,6B,,C,D,4 | 
[V:5] E,,8D,,4 | 
[V:1] E2C2D4C4 | 
[V:2] A2c2B2G4FG | 
[V:3] C2F4G2C4 | 
[V:4] E,2F,4D,2E,4 | 
[V:5] A,,4B,,4C,4 | 
[V:1] z4F4F4 | 
[V:2] A2c4A2_B3c | 
[V:3] F3GA4F2_B2- | 
[V:4] F,3E,C,4D,2F,2- | 
[V:5] F,,8_B,,3A,, | 
[V:1] G4A4G3A | 
[V:2] d3cc4z4 | 
[V:3] B2c2A4_B2G2 | 
[V:4] F,D,E,2F,4E,4 | 
[V:5] _B,,2A,,2F,,4G,,4 | 
[V:1] _B2A4G3FED | 
[V:2] z12 | 
[V:3] z2A2F2G4A2- | 
[V:4] D,6B,,2C,3D, | 
[V:5] D,,4z2E,,4F,,2- | 
[V:1] C4z4z4 | 
[V:2] z12 | 
[V:3] A2G4F2E4 | 
[V:4] E,F,G,F,E,D,D,4^C,2 | 
[V:5] F,,2E,,4F,,2G,,2A,,2 | 
[V:1] D8D4 | 
[V:2] A6A2B4 | 
[V:3] D4F4G4 | 
[V:4] D,4z4B,,4 | 
[V:5] D,,8z4 | 
[V:1] E4F6EF | 
[V:2] B4A4z2d2 | 
[V:3] G4C4D4 | 
[V:4] G,,4A,,8 | 
[V:5] G,,4F,,4D,,4 | 
[V:1] G4F4G3F | 
[V:2] B2G2A4G4 | 
[V:3] z4D4E4 | 
[V:4] G,,4z4G,,2B,,2 | 
[V:5] E,,4D,,4z2G,,2 | 
[V:1] EDD4CB,C4 | 
[V:2] z4G4F2E2 | 
[V:3] F4G4A4 | 
[V:4] C,2D,4E,2C,4 | 
[V:5] A,,2B,,4C,2A,,4 | 
[V:1] z2D2E2G3FD3/E/ | 
[V:2] G4B2c2d4- | 
[V:3] B8B4 | 
[V:4] z2G,4E,2D,2G,2 | 
[V:5] G,,8G,,4 | 
[V:1] F4E2D4B,2 | 
[V:2] d4B4G4 | 
[V:3] A4G6E2 | 
[V:4] F,2D,2z2G,,2B,,3C, | 
[V:5] D,,4G,,8 | 
[V:1] A,4z4z4 | 
[V:2] z2d2cde3cc2- | 
[V:3] F3GABcBAGG2- | 
[V:4] D,3B,,A,,G,,C,4E,2 | 
[V:5] D,,4z4z4 | 
[V:1] F4E2G3F/E/D2 | 
[V:2] c2B2c2d4B2 | 
[V:3] G2F2G8 | 
[V:4] D,4C,2B,,2G,,2B,,2 | 
[V:5] z4z2G,,4G,,2 | 
[V:1] C2D3EF2ED2B, | 
[V:2] A2B3AA2GFED | 
[V:3] z4F4G4 | 
[V:4] C,2B,,D,2C,A,,2B,,4 | 
[V:5] A,,2G,,2D,,4z4 | 
[V:1] C3DE2D4CB, | 
[V:2] E2C2z2D2G4 | 
[V:3] A4B6AG | 
[V:4] z2F,2G,3F,/E,/D,4 | 
[V:5] A,,4G,,8 | 
[V:1] A,3B,C2D2F3G | 
[V:2] A4z4_B4 | 
[V:3] F4F4F4- | 
[V:4] z2D,2C,2_B,,2D,3C,/B,,/ | 
[V:5] D,3C,A,,2_B,,4A,,G,, | 
[V:1] A4D4z4 | 
[V:2] c4d4D4 | 
[V:3] F4G4G4 | 
[V:4] A,,4G,,2D,4_B,,2 | 
[V:5] F,,4_B,,8 | 
[V:1] C3DE2F2G4 | 
[V:2] E2F2E2A2Bc2B | 
[V:3] A8G4 | 
[V:4] C,2F,,2C,2D,2E,4 | 
[V:5] A,,6G,,F,,E,,4 | 
[V:1] A6G2z2E2 | 
[V:2] d3Ac2B2A4 | 
[V:3] F4E8 | 
[V:4] z2A,,4B,,2C,4 | 
[V:5] D,,2F,,2z2G,,2A,,4 | 
[V:1] G2F4D2E2F2 | 
[V:2] z2F2A2G4A2 | 
[V:3] D8z4 | 
[V:4] D,3_B,,A,,2B,,4D,2 | 
[V:5] _B,,3G,,F,,2G,,4F,,2 | 
[V:1] D2D3C_B,A,B,4 | 
[V:2] _B3AF4G4 | 
[V:3] D12- | 
[V:4] _B,,2G,,2A,,4G,,4 | 
[V:5] G,,4D,,4z4 | 
[V:1] _B,4A,4D3E | 
[V:2] G4F3GA4- | 
[V:3] D12 | 
[V:4] G,,4A,,8 | 
[V:5] z4D,,8 | 
[V:1] FGA4G2E4 | 
[V:2] A2F3DD2A4 | 
[V:3] z4z4E4 | 
[V:4] D,6B,,2C,4 | 
[V:5] D,,2F,,4G,,2A,,4 | 
[V:1] z12 | 
[V:2] z12 | 
[V:3] F4E2F3E/D/C2 | 
[V:4] A,,2B,,2C,2D,2z2E,2 | 
[V:5] z2D,,2E,,2D,,2A,,4 | 
[V:1] z12 | 
[V:2] z4z4G4 | 
[V:3] D2E2F2D6 | 
[V:4] D,2A,4F,2G,2_B,2 | 
[V:5] B,,2C,2D,3C,B,,A,,G,,2 | 
[V:1] z12 | 
[V:2] E2F2E2A2G2A2- | 
[V:3] C2D2A,2z2z4 | 
[V:4] A,6F,2E,2F,2 | 
[V:5] z2D,2C,2D,2E,2A,,2- | 
[V:1] z12 | 
[V:2] A2D2C2D4^C2 | 
[V:3] z12 | 
[V:4] E,2A,4F,2E,4 | 
[V:5] A,,G,,F,,E,,F,,2D,,2A,,4 | 
[V:1] A,4C6D2- | 
[V:2] D4z2A3FF2 | 
[V:3] z4E4F4 | 
[V:4] D,3C,A,,4z4 | 
[V:5] z4A,,6_B,,2- | 
[V:1] D2_B,2A,4z2A2- | 
[V:2] D2E2F2c4d2 | 
[V:3] G4A6GF | 
[V:4] z4C,4F,3E,/D,/ | 
[V:5] B,,2G,,2F,,8 | 
[V:1] A2GFE6G2- | 
[V:2] e4c6B2 | 
[V:3] E8E4 | 
[V:4] C,4z2C,2A,,2B,,2 | 
[V:5] C,6A,,2A,,2G,,2 | 
[V:1] G2E2D2C2D4 | 
[V:2] G4z2A4G2 | 
[V:3] E4F6E2 | 
[V:4] C,4z4D,4 | 
[V:5] z2C,2_B,,2A,,2B,,4 | 
[V:1] z2E2F2G6 | 
[V:2] A2c3BG4E2 | 
[V:3] C4c4B2A2 | 
[V:4] E,2A,3G,E,4C,2 | 
[V:5] A,,4z4z4 | 
[V:1] F2E3DD4^C2 | 
[V:2] D2A,2z2D2E4 | 
[V:3] A8G4 | 
[V:4] D,2C,2D,2F,2E,4 | 
[V:5] z12 | 
[V:1] D3B,A,2D3EF2 | 
[V:2] F3GA4_B2A2 | 
[V:3] A4F2D4C2 | 
[V:4] D,4z2F,2G,2F,2 | 
[V:5] D,8G,,2A,,2 | 
[V:1] G4F2A4G2 | 
[V:2] G3A_B2A2c2=B2 | 
[V:3] D2E2F6ED | 
[V:4] D,2C,2D,3C,A,,2B,,2 | 
[V:5] B,,2C,2z2F,,4G,,2 | 
[V:1] E4F2G3FED | 
[V:2] c3Ac2B2G2G2- | 
[V:3] C4z4D4 | 
[V:4] A,,2E,2C,2D,3C,B,,A,, | 
[V:5] A,,6B,,3A,,G,,F,, | 
[V:1] C6B,2B,4 | 
[V:2] GFEDC2z2G4 | 
[V:3] E12- | 
[V:4] G,,8B,,4 | 
[V:5] E,,12- | 
[V:1] B,12 ||  
[V:2] G12 ||  
[V:3] E12 ||  
[V:4] B,,12 ||  
[V:5] E,,12 ||  
[V:1]  [K:C] [K:clef=treble][M:4/2]z8 | 
[V:2]  [K:C] [K:clef=treble-8][M:4/2]z8 | 
[V:3]  [K:C] [K:clef=treble-8][M:4/2]z8 | 
[V:4]  [K:C] [K:clef=bass][M:4/2]z8 | 
[V:5]  [K:C] [K:clef=bass][M:4/2]E,,8 | 
[V:1] z8 | 
[V:2] z8 | 
[V:3] z8 | 
[V:4] z8 | 
[V:5] F,,4F,,4 | 
[V:1] z8 | 
[V:2] z8 | 
[V:3] z8 | 
[V:4] B,,8 | 
[V:5] G,,4G,,4 | 
[V:1] A,8 | 
[V:2] E8 | 
[V:3] z8 | 
[V:4] C,4C,4 | 
[V:5] A,,4A,,4 | 
[V:1] A,4A,4 | 
[V:2] F4F4 | 
[V:3] z8 | 
[V:4] D,4D,4 | 
[V:5] D,,4F,,4 | 
[V:1] C4C4 | 
[V:2] G4G4 | 
[V:3] z8 | 
[V:4] E,4E,4 | 
[V:5] E,,4E,,4 | 
[V:1] D4D4 | 
[V:2] A4A4 | 
[V:3] z8 | 
[V:4] A,,8 | 
[V:5] D,,4D,,4 | 
[V:1] D6B,2 | 
[V:2] D4F4 | 
[V:3] A8 | 
[V:4] z4D,4 | 
[V:5] F,,4F,,4 | 
[V:1] C4D4 | 
[V:2] G4A4- | 
[V:3] G4F4 | 
[V:4] E,4A,,4 | 
[V:5] E,,4D,,4 | 
[V:1] E4D2C2 | 
[V:2] A4z4 | 
[V:3] E3FG2A2 | 
[V:4] C,4D,2E,2- | 
[V:5] A,,4B,,2C,2- | 
[V:1] E4A,4 | 
[V:2] z8 | 
[V:3] B2c4A2 | 
[V:4] E,2C,2F,2E,2- | 
[V:5] C,B,,A,,G,,A,,3G,, | 
[V:1] z8 | 
[V:2] z8 | 
[V:3] GFF4E2 | 
[V:4] E,2C,4B,,2 | 
[V:5] E,,2F,,2G,,4 | 
[V:1] F8 | 
[V:2] F8 | 
[V:3] F4z4 | 
[V:4] C,6D,2- | 
[V:5] F,,3G,,A,,2_B,,2- | 
[V:1] D4E4 | 
[V:2] G4G4 | 
[V:3] z8 | 
[V:4] D,C,B,,A,,G,,3A,, | 
[V:5] B,,A,,G,,F,,E,,4 | 
[V:1] F4F4 | 
[V:2] F4D4 | 
[V:3] z8 | 
[V:4] B,,A,,D,4B,,2 | 
[V:5] D,,4z4 | 
[V:1] G4G4 | 
[V:2] E4E4 | 
[V:3] c8 | 
[V:4] C,2A,,4G,,2 | 
[V:5] z4E,,4 | 
[V:1] F4D4 | 
[V:2] D4F4- | 
[V:3] d4d4 | 
[V:4] A,,4z2A,2- | 
[V:5] F,,2D,,6 | 
[V:1] z2E4F2 | 
[V:2] F2EDC4 | 
[V:3] c4A4 | 
[V:4] A,2G,2E,2C,2 | 
[V:5] F,,2G,,2A,,4 | 
[V:1] G4G4 | 
[V:2] z2_B,3CDE | 
[V:3] _B4_B4 | 
[V:4] D,C,_B,,A,,G,,4 | 
[V:5] G,,4z4 | 
[V:1] A6GF | 
[V:2] F4E2C2- | 
[V:3] A4c4- | 
[V:4] D,4C,4 | 
[V:5] D,,4A,,4- | 
[V:1] E2F2D2D2- | 
[V:2] C2c2_B2G2 | 
[V:3] c2_BAG4 | 
[V:4] A,,4_B,,4 | 
[V:5] A,,2F,,2G,,4 | 
[V:1] D2CB,A,4 | 
[V:2] A4D2F2- | 
[V:3] F6ED | 
[V:4] A,,8 | 
[V:5] D,,8 | 
[V:1] A6GF | 
[V:2] F2G2A4- | 
[V:3] C4z4 | 
[V:4] z4A,,2C,2- | 
[V:5] F,,4F,,3G,, | 
[V:1] E4z4 | 
[V:2] A4z4 | 
[V:3] c8 | 
[V:4] C,D,E,D,/E,/F,3E, | 
[V:5] A,,4z4 | 
[V:1] C8 | 
[V:2] z8 | 
[V:3] A4A4 | 
[V:4] F,2E,3D,C,B,, | 
[V:5] A,,8 | 
[V:1] D4C2A,2 | 
[V:2] z8 | 
[V:3] F8 | 
[V:4] A,,6C,2 | 
[V:5] D,,4F,,4 | 
[V:1] B,4C4 | 
[V:2] z8 | 
[V:3] E6F2 | 
[V:4] B,,2E,4D,C, | 
[V:5] G,,4A,,4 | 
[V:1] B,4A,2C2- | 
[V:2] z4F4 | 
[V:3] G4A4 | 
[V:4] D,2E,2z4 | 
[V:5] z4z2A,,2- | 
[V:1] C2D2E4 | 
[V:2] E2D4C2 | 
[V:3] G2F2E4 | 
[V:4] z8 | 
[V:5] A,,E,,F,,2G,,2A,,2 | 
[V:1] D4z4 | 
[V:2] F4D2E2 | 
[V:3] z8 | 
[V:4] D,6C,2- | 
[V:5] F,,2_B,,4A,,2- | 
[V:1] z8 | 
[V:2] F2E3CD2 | 
[V:3] z8 | 
[V:4] C,A,,B,,2A,,2D,2- | 
[V:5] A,,2G,,2F,,4 | 
[V:1] z8 | 
[V:2] E4D4 | 
[V:3] z8 | 
[V:4] D,B,,C,2z2D,2- | 
[V:5] E,,4z4 | 
[V:1] z8 | 
[V:2] A4G4 | 
[V:3] z8 | 
[V:4] D,2C,2B,,4 | 
[V:5] z2E,4D,2 | 
[V:1] z8 | 
[V:2] z2A3FG2 | 
[V:3] z8 | 
[V:4] A,,4z2E,2- | 
[V:5] C,3A,,B,,2E,,2 | 
[V:1] z8 | 
[V:2] F4E2A2- | 
[V:3] z8 | 
[V:4] E,2D,2C,3A,, | 
[V:5] z4E,4 | 
[V:1] z8 | 
[V:2] AFG2A3G/F/ | 
[V:3] z8 | 
[V:4] B,,2E,3C,D,2 | 
[V:5] D,2C,3A,,B,,2 | 
[V:1] z8 | 
[V:2] E2G3F/E/D2- | 
[V:3] z8 | 
[V:4] E,2C,2B,,4 | 
[V:5] E,,4G,,3F,, | 
[V:1] z8 | 
[V:2] D2F3EE2- | 
[V:3] z8 | 
[V:4] D,3C,A,,2z2 | 
[V:5] D,,4F,,2G,,2 | 
[V:1] z8 | 
[V:2] EFG3EF3/E/ | 
[V:3] z8 | 
[V:4] C,2B,,2C,2D,2 | 
[V:5] E,,4z2D,,2 | 
[V:1] z8 | 
[V:2] GFEDFEFE- | 
[V:3] z8 | 
[V:4] C,/B,,/A,,C,B,,C,2A,,B,,- | 
[V:5] E,,F,,2G,,A,,2F,,G,,- | 
[V:1] z8 | 
[V:2] EDD4^C2 | 
[V:3] z8 | 
[V:4] B,,A,,A,,4G,,2 | 
[V:5] G,,F,,D,,2E,,4 | 
[V:1] F8 | 
[V:2] D4F4- | 
[V:3] z4D4- | 
[V:4] A,,8 | 
[V:5] D,,8 | 
[V:1] D8 | 
[V:2] F2G2A4- | 
[V:3] D4F4- | 
[V:4] _B,,4A,,4 | 
[V:5] z4D,,4 | 
[V:1] C4F4 | 
[V:2] A2GFF2ED | 
[V:3] F2G2A4- | 
[V:4] z4D,4 | 
[V:5] F,,6G,,2 | 
[V:1] z2E4A2- | 
[V:2] F2E2A4- | 
[V:3] A2B2c4- | 
[V:4] C,4C,3D, | 
[V:5] A,,4A,,2A,,2- | 
[V:1] A2GFE4- | 
[V:2] A2c4BA | 
[V:3] c2BAG4 | 
[V:4] E,6E,2 | 
[V:5] A,,2A,,2C,4- | 
[V:1] E2DCB,3G, | 
[V:2] G4d4 | 
[V:3] z8 | 
[V:4] G,6F,E, | 
[V:5] C,2B,,2G,,4 | 
[V:1] A,2G,4D2 | 
[V:2] z2D2E2F2 | 
[V:3] z8 | 
[V:4] D,3B,,C,2D,2 | 
[V:5] F,,2G,,2z4 | 
[V:1] E2D2G3E | 
[V:2] G3AB2c2 | 
[V:3] z8 | 
[V:4] G,,2D,2z2C,2 | 
[V:5] z8 | 
[V:1] F2G4^F2 | 
[V:2] d2B2A4 | 
[V:3] z8 | 
[V:4] B,,2G,,2D,4 | 
[V:5] z8 | 
[V:1] G6FE | 
[V:2] G4B4 | 
[V:3] z4D4- | 
[V:4] G,,8 | 
[V:5] z4G,,4- | 
[V:1] D4D4 | 
[V:2] B3cd2d2- | 
[V:3] D4F4- | 
[V:4] B,,4B,,3A,, | 
[V:5] G,,2F,,E,,D,,4- | 
[V:1] F4F3G | 
[V:2] d2cBA4 | 
[V:3] F2G2A4- | 
[V:4] D,4D,3C, | 
[V:5] D,,4F,,4- | 
[V:1] A6GF | 
[V:2] z4A4 | 
[V:3] A2B2c4- | 
[V:4] F,4F,3E, | 
[V:5] F,,2G,,2A,,4 | 
[V:1] E3FG4- | 
[V:2] c3de2d2 | 
[V:3] c2BAG4- | 
[V:4] A,4z4 | 
[V:5] A,,3G,,/F,,/E,,2G,,2- | 
[V:1] G2F2E4 | 
[V:2] e2dcB2A2 | 
[V:3] G2A2B2c2 | 
[V:4] z8 | 
[V:5] G,,E,,F,,2G,,2A,,2 | 
[V:1] F4z2E2 | 
[V:2] A4z4 | 
[V:3] d6cB | 
[V:4] z2D,3B,,C,2 | 
[V:5] D,,4z4 | 
[V:1] F2G2E4 | 
[V:2] z4c4- | 
[V:3] A2G2c4 | 
[V:4] D,2E,2A,,4 | 
[V:5] z4z2A,,2- | 
[V:1] F3DE2F2 | 
[V:2] c2BAG2F2 | 
[V:3] z8 | 
[V:4] z8 | 
[V:5] A,,D,,F,,2G,,2A,,2 | 
[V:1] G2F4D2 | 
[V:2] _B4A2G2 | 
[V:3] z8 | 
[V:4] z4D,4 | 
[V:5] G,,2D,4B,,2 | 
[V:1] E2A,2G,2A,2 | 
[V:2] z8 | 
[V:3] c4B2A2- | 
[V:4] C,2E,4C,2 | 
[V:5] A,,4z4 | 
[V:1] B,4A,4- | 
[V:2] z4c4- | 
[V:3] A2G2z4 | 
[V:4] B,,2E,2A,,4 | 
[V:5] z4A,,4- | 
[V:1] A,4z2A2 | 
[V:2] c2BAG2F2 | 
[V:3] z8 | 
[V:4] z2D,2E,2C,2 | 
[V:5] A,,2G,,F,,E,,2A,,2 | 
[V:1] F2G2A4 | 
[V:2] _B4z4 | 
[V:3] d6cB | 
[V:4] D,8 | 
[V:5] z2G,,2D,,2F,,2- | 
[V:1] F2D2E4 | 
[V:2] z8 | 
[V:3] A2G2c4 | 
[V:4] D,4z2C,2 | 
[V:5] F,,2G,,2E,,4 | 
[V:1] F2E4C2 | 
[V:2] _B4A2G2- | 
[V:3] z8 | 
[V:4] D,2G,,2C,2E,2 | 
[V:5] z8 | 
[V:1] D4E4 | 
[V:2] G2F2G2z2 | 
[V:3] z4c4 | 
[V:4] D,4C,2A,,E,- | 
[V:5] z4C,3B,, | 
[V:1] z2E3D/C/B,2 | 
[V:2] G2E3FG2 | 
[V:3] B2A4G2 | 
[V:4] E,D,C,2B,,2E,2- | 
[V:5] G,,2A,,2E,,4 | 
[V:1] A,2C2B,2C2- | 
[V:2] C4D2A2- | 
[V:3] A4z4 | 
[V:4] E,C,E,F,G,2F,E,- | 
[V:5] A,,4B,,2A,,2- | 
[V:1] CA,B,2C2A,2- | 
[V:2] A2G2E4 | 
[V:3] z8 | 
[V:4] E,D,D,2z2C,2 | 
[V:5] A,,F,,G,,2A,,4 | 
[V:1] A,2D2F3G | 
[V:2] F4A4 | 
[V:3] A4d3c | 
[V:4] D,8 | 
[V:5] D,,4D,,3E,, | 
[V:1] A2G3FED | 
[V:2] F2D2G2G2- | 
[V:3] A2B4G2 | 
[V:4] D,4B,,4 | 
[V:5] F,,2G,,3D,,G,,2 | 
[V:1] C4z2F2 | 
[V:2] GEF2G2A2 | 
[V:3] A2c2B2d2- | 
[V:4] A,,4D,4- | 
[V:5] z2A,,2G,,2F,,2 | 
[V:1] D2G2F2E2- | 
[V:2] z2G2A4 | 
[V:3] d2B2c3A | 
[V:4] D,4C,4 | 
[V:5] G,,2B,,2A,,3G,,/F,,/ | 
[V:1] ED/C/B,2A,2E2- | 
[V:2] G4E3F | 
[V:3] B4c3A | 
[V:4] E,6C,2 | 
[V:5] E,,2G,,2A,,2C,2- | 
[V:1] E2F2G4 | 
[V:2] G2A2G4 | 
[V:3] G2F2_B4 | 
[V:4] C,4D,2E,2 | 
[V:5] C,2A,,2_B,,2G,,2 | 
[V:1] A2F4D2 | 
[V:2] z2A2D4 | 
[V:3] A4F3G | 
[V:4] F,2D,4F,2- | 
[V:5] F,,4_B,,4 | 
[V:1] CDEFG2F2- | 
[V:2] F2G2B2A2- | 
[V:3] A2B2G2c2- | 
[V:4] F,2E,4C,2 | 
[V:5] A,,2G,,2E,,2F,,2- | 
[V:1] FEE4D2 | 
[V:2] AGE2G4 | 
[V:3] cBA4G2 | 
[V:4] D,2A,,2B,,4 | 
[V:5] F,,G,,A,,2E,,2G,,2 | 
[V:1] F6G2 | 
[V:2] C2D2F2E2 | 
[V:3] A8- | 
[V:4] A,,8- | 
[V:5] F,,2D,,4C,,2 | 
[V:1] A6GF | 
[V:2] D2F4ED | 
[V:3] A8- | 
[V:4] A,,8 | 
[V:5] F,,3G,,A,,4- | 
[V:1] E8- | 
[V:2] C8 | 
[V:3] A8- | 
[V:4] C,8- | 
[V:5] A,,8- | 
[V:1] E8 |]  
[V:2] E8 |]  
[V:3] A8 |]  
[V:4] C,8 |]  
[V:5] A,,8 |]  



